X: 4
T: Last Night's Fun
R: reel
M: 4/4
L: 1/8
K: Dmaj
|:ADFD A3B | AD (3FED EFGB | ADFD A2 (3Bcd | e2 fe dB B2 |
AD D2 A3B | ADFD EFGB | ADFD A2 (3Bcd | edfe dBBA ||
|:df f2 af f2 | df f2 egfe | df f2 af f2 | afed (3Bcd AB |
df f2 af f2 | df f2 e3f | afbf afeg | f2 ed BAdB ||


Tune 63	Setting 12510

